X:1
T:Jesus Is the Only Way
T:Jesus Is the Only Way
T:Ada Rose Gibbs (1864-1905)
T:Arthur J. Hodge, 1843
T:Public Domain Courtesy of the Cyber Hymnal™
T:Public Domain Courtesy of the Cyber Hymnal™
C:Ada Rose Gibbs (1864-1905)
Z:Public Domain
Z:Courtesy of the Cyber Hymnal™
%%score ( 1 2 ) ( 3 4 )
L:1/8
Q:1/4=103
M:4/4
K:G
V:1 treble 
V:2 treble 
V:3 bass 
V:4 bass 
V:1
 [Bd][Ac] | [GB]2 [FA]2 [GB]2 [Fc][Gd] | [GB]2 [FA]2 G2 GG | [FA]2 [Fd]2 [GB]2 [FA]G | %4
w: 1.~There is|just one way for you|all to come; There is|just one road that will|
w: 2.~There is|just one smile that can|cheer your path; There is|just one name that can|
w: 3.~There is|just one fount— there is|just one cross— There is|just one help for the|
 [FA]2 [G^c]2 [Fd]2 [Fd][Fd] | [=Fd]2 [Fd]2 [Fd]2 [F_B][Bd] | [G_e]2 [_Bd]2 [Ac]2 [Ac]2 | %7
w: lead you home; There is|just one gate to the|realms of day— The|
w: save from wrath; There is|just one life that could|e’er a- tone— O|
w: sin- ner’s loss; There is|just one hope— all in|all to me— O|
 [Ad]2 [Ad]2 [_Bd][GB][GB][Gc] | [Fd]2 [Gd]2 [Ad]4 ||"^Refrain" [GB][GB][Fc][Fc] [Gd]3 G | %10
w: bless- èd Je- sus is the|on- ly way.||
w: bless- èd Je- sus, it is|Thine a- lone!|Je- sus is the way— the|
w: bless- èd Je- sus, it is|none but Thee!||
 [GB]2 [FA]2 G4 | [FA][Fd][FA][Fd] [GB]2 G2 | [GA][GA][GB][GA] [FA]4 | %13
w: |||
w: on- ly way;|Lov- ing- ly He call- eth,|thus the Scrip- tures say,|
w: |||
 [GB][GB][Fc][Fc] [Gd]2 G[Fc] | [GB]2 [FA]2 G3 G | [Gd]2 [Ge]2 [Gd][GB][EG][Ec] | [FA]6 G2 | %17
w: ||||
w: Who- so- ev- er will, let Him|come to- day— The|bless- èd Je- sus is the|on- ly|
w: ||||
 G4- G2 |] %18
w: |
w: way! *|
w: |
V:2
 x2 | x8 | x4 G2 GG | x7 G | x8 | x8 | x8 | x8 | x8 || x7 G | x4 G4 | x6 G2 | x8 | x6 G x | %14
 x4 G3 G | x8 | x6 G2 | G4- G2 |] %18
V:3
 [G,D][G,D] | [G,D]2 [G,C]2 [G,D]2 [A,D][B,D] | [D,D]2 [D,C]2 [G,B,]2 [G,B,][G,B,] | %3
 [D,D]2 [D,D]2 [G,D]2 [CD][B,D] | [A,D]2 [A,E]2 [D,D]2 [D,D][D,D] | %5
 [_B,D]2 [B,D]2 [B,D]2 [B,D][B,=F] | [C,_E]2 [D,=F]2 [=F,F]2 [F,F]2 | %7
 [D,F]2 [D,F]2 [G,G][G,D][G,D][G,_E] | [D,D]2 [D,^E]2 [D,F]4 || [G,G][G,G][A,D][A,D] [B,D]3 [B,D] | %10
 [D,D]2 [D,C]2 [G,B,]4 | [D,D][D,D][D,D][D,D] [G,D]2 [B,D]2 | [A,^C][A,C][A,D][A,C] [D,D]4 | %13
 [G,D][G,D][A,D][A,D] [B,D]2 [B,D][A,D] | D2 [^D,C]2 [E,B,]3 [E,B,] | %15
 [B,,D]2 [C,C]2 [B,,D][B,,D][C,C][C,C] | [D,C]6 [G,B,]2 | [G,B,]4- [G,B,]2 |] %18
V:4
 x2 | x8 | x8 | x8 | x8 | x8 | x8 | x8 | x8 || x8 | x8 | x8 | x8 | x8 | (G,^D,) x6 | x8 | x8 | %17
 x6 |] %18

